!!!SOCIAL_FUNCTION:	songs with treatment of the sick
!!!PDT:	1956
!!!OTL: No_204_Song_for_a_Sick_Baby.krn
!!!LANG: Non-Tone
!!!LING_GROUP: Muskogean
!!!REG: Florida
**kern
*staff1
=1-
*clefG2
*k[b-e-a-d-g-]
*M3/4
2r
4d-/
=2!|:
[2f/
8f/L]
8a-/J
=3||
*M2/4
8.f/L
16e-/Jk
4d-/
=4
8d-/
8r
4d-/
=5||
*M3/4
2e-/
8d-/L
8f/J
=6||
*M2/4
12e-/L
12d-/
12B-/J
16B-/LL
16B-/JJ
8r
=7
4r
4B-/
=8||
*M3/4
4d-/
8d-/L
8d-/J
4r
=9||
*M2/4
4d-/
4B-/
=10||
*M3/4
8.d-/L
16d-/Jk
4d-/
8.B-/L
16B-/Jk
=11||
*M2/4
4d-/
4d-/
=12
4d-/
4B-/
=13
8.d-/L
16d-/Jk
4d-/
=14
4d-/
8d-/L
8d-/J
=15
4r
4d-/
==:|!
*-
